resources/svg/solid/baseball.svg

<svg xmlns="http://www.w3.org/2000/svg" fill="currentColor" stroke="none" viewBox="0 0 24 24"><path d="M21.984 12.236a9.966 9.966 0 0 0-2.913-7.308 9.966 9.966 0 0 0-7.308-2.913 9.04 9.04 0 0 1-.673 4.313l-1.84-.78a7.044 7.044 0 0 0 .526-3.284 9.927 9.927 0 0 0-4.847 2.665 9.924 9.924 0 0 0-2.666 4.852 7.082 7.082 0 0 0 2.576-.276l.575 1.916c-1.1.33-2.257.443-3.398.344a9.964 9.964 0 0 0 2.913 7.307 9.965 9.965 0 0 0 7.307 2.913 9.079 9.079 0 0 1 .344-3.398l1.916.575a7.06 7.06 0 0 0-.276 2.576 9.927 9.927 0 0 0 4.853-2.666 9.926 9.926 0 0 0 2.665-4.848 7.056 7.056 0 0 0-3.284.526l-.78-1.841a9.025 9.025 0 0 1 4.31-.673zM9.17 9.173a9.017 9.017 0 0 1-2.192 1.612l-.927-1.772a7.01 7.01 0 0 0 2.576-2.314l1.663 1.113c-.328.49-.705.948-1.12 1.361zm7.074 7.068a6.991 6.991 0 0 0-1.257 1.708l-1.772-.927a9.025 9.025 0 0 1 2.972-3.312l1.113 1.663a6.987 6.987 0 0 0-1.056.868z"/></svg>

<svg xmlns="http://www.w3.org/2000/svg" fill="currentColor" stroke="none" viewBox="0 0 24 24"><path d="M21.984,12.236c0.062-2.64-0.904-5.298-2.913-7.308c-2.01-2.009-4.668-2.975-7.308-2.913c0.13,1.472-0.1,2.961-0.673,4.313 L9.25,5.548c0.437-1.03,0.612-2.162,0.526-3.284C7.999,2.667,6.31,3.548,4.929,4.929C3.547,6.311,2.665,8.002,2.263,9.781 c0.866,0.066,1.742-0.025,2.576-0.276l0.575,1.916c-1.1,0.33-2.257,0.443-3.398,0.344c-0.062,2.639,0.904,5.298,2.913,7.307 c2.01,2.009,4.668,2.975,7.307,2.913c-0.1-1.142,0.014-2.299,0.344-3.398l1.916,0.575c-0.251,0.834-0.343,1.71-0.276,2.576 c1.779-0.402,3.471-1.284,4.853-2.666c1.381-1.381,2.262-3.07,2.665-4.848c-1.122-0.086-2.254,0.09-3.284,0.526l-0.78-1.841 C19.023,12.336,20.513,12.106,21.984,12.236z M9.17,9.173c-0.646,0.647-1.386,1.189-2.192,1.612L6.051,9.013 c0.628-0.328,1.202-0.751,1.707-1.255c0.323-0.323,0.615-0.679,0.869-1.059l1.663,1.113C9.962,8.302,9.585,8.76,9.17,9.173z M16.244,16.241c-0.506,0.506-0.929,1.08-1.257,1.708l-1.772-0.927c0.423-0.807,0.965-1.546,1.613-2.194 c0.412-0.413,0.87-0.79,1.359-1.118l1.113,1.663C16.921,15.627,16.565,15.919,16.244,16.241z"/></svg>
